!!!COM: Stravinsky, Igor (Fyodorovich)
!!!OTL: Pesnya solov′ya (Song of the Nightingale), Symphonic Poem
!!!OMV: II: Marche chinoise (Chinese March)
!!!example: 368
!!!work: Str-13
**kern	**kern	**kern	**kern	**kern	**kern	**kern	**kern	**kern	**kern	**kern	**kern	**kern	**kern	**dynam	**kern	**dynam	**kern	**dynam	**kern	**dynam
*part13	*part12	*part11	*part10	*part9	*part8	*part8	*part7	*part7	*part6	*part6	*part5	*part5	*part4	*part4	*part3	*part3	*part2	*part2	*part1	*part1
*staff17	*staff16	*staff15	*staff14	*staff13	*staff12	*staff11	*staff10	*staff9	*staff8	*staff7	*staff6	*staff5	*staff4	*	*staff3	*	*staff2	*	*staff1	*
*I"Contrabass	*I"Violoncello	*I"Viola	*I"Violin II	*I"Violin I	*I"Harp	*	*I"Harp	*	*I"Piano	*	*I"Celesta	*	*I"Percussion	*	*I"Percussion	*	*I"Percussion	*	*I"Percussion	*
*I'Cb.	*I'Vc.	*I'Vla.	*I'Vln. II	*I'Vln. I	*I'Hp.	*	*I'Hp.	*	*I'Pno.	*	*I'Cel.	*	*I'Perc.	*	*I'Perc.	*	*I'Perc.	*	*I'Perc.	*
*clefF4	*clefF4	*clefC3	*clefG2	*clefG2	*clefG2	*clefG2	*clefF4	*clefF4	*clefG2	*clefG2	*clefG2	*clefG2	*clefpercussion0	*	*clefpercussion0	*	*clefpercussion0	*	*clefpercussion0	*
*k[f#c#g#d#a#]	*k[f#c#g#d#a#]	*k[f#c#g#d#a#]	*k[f#c#g#d#a#]	*k[f#c#g#d#a#]	*k[f#c#g#d#a#]	*k[f#c#g#d#a#]	*k[f#c#g#d#a#]	*k[f#c#g#d#a#]	*k[f#c#g#d#a#]	*k[f#c#g#d#a#]	*k[f#c#g#d#a#]	*k[f#c#g#d#a#]	*	*	*	*	*	*	*	*
*B:	*B:	*B:	*B:	*B:	*B:	*B:	*B:	*B:	*B:	*B:	*B:	*B:	*	*	*	*	*	*	*	*
*M2/8	*M2/8	*M2/8	*M2/8	*M2/8	*M2/8	*M2/8	*M2/8	*M2/8	*M2/8	*M2/8	*M2/8	*M2/8	*M2/8	*	*M2/8	*	*M2/8	*	*M2/8	*
*MM121	*MM121	*MM121	*MM121	*MM121	*MM121	*MM121	*MM121	*MM121	*MM121	*MM121	*MM121	*MM121	*MM121	*	*MM121	*	*MM121	*	*MM121	*
=40	=40	=40	=40	=40	=40	=40	=40	=40	=40	=40	=40	=40	=40	=40	=40	=40	=40	=40	=40	=40
8r	8r	4r	4r	4r	4r	4r	8FF#L	8G#L	4r	4r	16ccc#LL 16fff#	16aaa#LL 16dddd#	4r	.	4r	.	4r	.	4r	.
.	.	.	.	.	.	.	.	.	.	.	16bb 16eee	16ggg# 16cccc#	.	.	.	.	.	.	.	.
8CC#	8GG#	.	.	.	.	.	8CC#J	8GG#J	.	.	16aa# 16ddd#	16fff# 16bbb	.	.	.	.	.	.	.	.
.	.	.	.	.	.	.	.	.	.	.	16gg#JJ 16ccc#	16eeeJJ 16aaa#	.	.	.	.	.	.	.	.
*	*	*	*	*	*	*	*	*clefG2	*	*	*	*	*	*	*	*	*	*	*	*
=41	=41	=41	=41	=41	=41	=41	=41	=41	=41	=41	=41	=41	=41	=41	=41	=41	=41	=41	=41	=41
*M2/4	*M2/4	*M2/4	*M2/4	*M2/4	*M2/4	*M2/4	*M2/4	*M2/4	*M2/4	*M2/4	*M2/4	*M2/4	*M2/4	*	*M2/4	*	*M2/4	*	*M2/4	*
!	!	!LO:TX:t=pizz.	!LO:TX:t=pizz.	!LO:TX:t=pizz.	!	!	!	!	!	!	!	!	!	!	!	!	!	!	!	!
8EL	8f#L	8F#L 8A#	8d#L 8g#	8cc#L 8ff#	8r	8r	16r	16f#	8d#`L 8g#	8cc#`L 8ff#	8r	8dd# 8gg# 8ccc# 8fff#	8r	.	4r	.	8r	.	8x	p
.	.	.	.	.	.	.	16ELL	16r	.	.	.	.	.	.	.	.	.	.	.	.
*	*	*	*	*	*	*	*	*	*	*	*clefF4	*	*	*	*	*	*	*	*	*
.	.	.	.	.	.	.	.	.	.	.	.	.	16qx/LL	p	.	.	.	.	.	.
.	.	.	.	.	.	.	.	.	.	.	.	.	16qx/	.	.	.	.	.	.	.
.	.	.	.	.	.	.	.	.	.	.	.	.	16qx/JJ	.	.	.	8qqx/	p	.	.
8FF#J	8G#J	8G#J 8c#	8f#J 8a#	8dd#J 8gg#	8c# 8f#	8a# 8dd#	16G#	8r	8f#`J 8a#	8dd#`J 8gg#	8c# 8f# 8a# 8dd#	8r	8x	.	.	.	8x	.	8r	.
.	.	.	.	.	.	.	16C#JJ	.	.	.	.	.	.	.	.	.	.	.	.	.
8EEL	8BBL	8A#L 8d#	8g#L 8cc#	8ff#L 8aa#	8r	8r	16FF#LL	4r	8g#`L 8cc#	8ff#`L 8aa#	8r	8dd# 8gg# 8ccc# 8fff#	4r	.	8x	p	4r	.	8r	.
.	.	.	.	.	.	.	16BBB	.	.	.	.	.	.	.	.	.	.	.	.	.
8EJ	8f#J	8c#J 8f#	8a#J 8dd#	8gg#J 8ccc#	8c# 8f#	8a# 8dd#	16FF#	.	8a#`J 8dd#	8gg#`J 8ccc#	8c# 8f# 8a# 8dd#	8r	.	.	8r	.	.	.	8x	.
.	.	.	.	.	.	.	16C#JJ	.	.	.	.	.	.	.	.	.	.	.	.	.
=42	=42	=42	=42	=42	=42	=42	=42	=42	=42	=42	=42	=42	=42	=42	=42	=42	=42	=42	=42	=42
.	.	.	.	.	.	.	.	.	.	.	.	.	16qx/LL	.	.	.	.	.	.	.
.	.	.	.	.	.	.	.	.	.	.	.	.	16qx/	.	.	.	.	.	.	.
.	.	.	.	.	.	.	.	.	.	.	.	.	16qx/JJ	.	.	.	8qqx/	.	.	.
8FF#L	8G#L	16d#LL 16g#	16cc#LL 16ff#	16aa#LL 16ddd#	8r	8r	16ELL	8r	16cc#`LL 16ff#	16aa#`LL 16ddd#	8r	8dd# 8gg# 8ccc# 8fff#	8x	.	8r	.	8x	.	4r	.
.	.	16f#J 16a#	16dd#J 16gg#	16bbJ 16eee	.	.	16G#JJ	.	16dd#`J 16gg#	16bb`J 16eee	.	.	.	.	.	.	.	.	.	.
8EEJ	8BBJ	8d#J 8g#	8cc#J 8ff#	8aa#J 8ddd#	8c# 8f#	8a# 8dd#	16r	16f#	8cc#`J 8ff#	8aa#`J 8ddd#	8c# 8f# 8a# 8dd#	8r	8r	.	8x	.	8r	.	.	.
.	.	.	.	.	.	.	16E	16r	.	.	.	.	.	.	.	.	.	.	.	.
8EL	8f#L	8c#L 8f#	8a#L 8dd#	8gg#L 8ccc#	8r	8r	16G#LL	8r	8a#`L 8dd#	8gg#`L 8ccc#	8r	8dd# 8gg# 8ccc# 8fff#	8r	.	4r	.	8r	.	8x	.
.	.	.	.	.	.	.	16C#	.	.	.	.	.	.	.	.	.	.	.	.	.
.	.	.	.	.	.	.	.	.	.	.	.	.	16qx/LL	.	.	.	.	.	.	.
.	.	.	.	.	.	.	.	.	.	.	.	.	16qx/	.	.	.	.	.	.	.
.	.	.	.	.	.	.	.	.	.	.	.	.	16qx/JJ	.	.	.	8qqx/	.	.	.
8FF#J	8G#J	16A#L 16d#	16g#L 16cc#	16ff#L 16aa#	8c# 8f#	8a# 8dd#	16FF#	8r	16g#`L 16cc#	16ff#`L 16aa#	8c# 8f# 8a# 8dd#	8r	8x	.	.	.	8x	.	8r	.
.	.	16G#JJ 16c#	16f#JJ 16a#	16dd#JJ 16gg#	.	.	16BBBJJ	.	16f#`JJ 16a#	16dd#`JJ 16gg#	.	.	.	.	.	.	.	.	.	.
=43	=43	=43	=43	=43	=43	=43	=43	=43	=43	=43	=43	=43	=43	=43	=43	=43	=43	=43	=43	=43
8EEL	8BBL	8F#L 8A#	8d#L 8g#	8cc#L 8ff#	8r	8r	16FF#LL	8r	8d#`L 8g#	8cc#`L 8ff#	8r	8dd# 8gg# 8ccc# 8fff#	8r	.	8x	.	8r	.	8r	.
.	.	.	.	.	.	.	16C#	.	.	.	.	.	.	.	.	.	.	.	.	.
8EJ	8f#J	8G#J 8c#	8f#J 8a#	8dd#J 8gg#	8c# 8f#	8a# 8dd#	16E	8r	8f#`J 8a#	8dd#`J 8gg#	8c# 8f# 8a# 8dd#	8r	8r	.	8r	.	8r	.	8x	.
.	.	.	.	.	.	.	16G#JJ	.	.	.	.	.	.	.	.	.	.	.	.	.
.	.	.	.	.	.	.	.	.	.	.	.	.	16qx/LL	.	.	.	.	.	.	.
.	.	.	.	.	.	.	.	.	.	.	.	.	16qx/	.	.	.	.	.	.	.
.	.	.	.	.	.	.	.	.	.	.	.	.	16qx/JJ	.	.	.	8qqx/	.	.	.
8FF#L	8G#L	8A#L 8d#	8g#L 8cc#	8ff#L 8aa#	8r	8r	16r	16f#	8g#`L 8cc#	8ff#`L 8aa#	8r	8dd# 8gg# 8ccc# 8fff#	8x	.	8r	.	8x	.	4r	.
.	.	.	.	.	.	.	16ELL	16r	.	.	.	.	.	.	.	.	.	.	.	.
8EEJ	8BBJ	8c#J 8f#	8a#J 8dd#	8gg#J 8ccc#	8c# 8f#	8a# 8dd#	16G#	8r	8a#`J 8dd#	8gg#`J 8ccc#	8c# 8f# 8a# 8dd#	8r	8r	.	8x	.	8r	.	.	.
.	.	.	.	.	.	.	16C#JJ	.	.	.	.	.	.	.	.	.	.	.	.	.
=44	=44	=44	=44	=44	=44	=44	=44	=44	=44	=44	=44	=44	=44	=44	=44	=44	=44	=44	=44	=44
8EL	8f#L	8d#L 8g#	8cc#L 8ff#	8aa#L 8ddd#	8r	8r	16FF#LL	8r	8cc#`L 8ff#	8aa#`L 8ddd#	8r	8dd# 8gg# 8ccc# 8fff#	8r	.	4r	.	8r	.	8x	.
.	.	.	.	.	.	.	16BBB	.	.	.	.	.	.	.	.	.	.	.	.	.
.	.	.	.	.	.	.	.	.	.	.	.	.	16qx/LL	.	.	.	.	.	.	.
.	.	.	.	.	.	.	.	.	.	.	.	.	16qx/	.	.	.	.	.	.	.
.	.	.	.	.	.	.	.	.	.	.	.	.	16qx/JJ	.	.	.	8qqx/	.	.	.
8FF#J	8G#J	8f#J 8a#	8dd#J 8gg#	8ccc#J 8fff#	8c# 8f#	8a# 8dd#	16FF#	8r	8dd#`J 8gg#	8ccc#`J 8fff#	8c# 8f# 8a# 8dd#	8r	8x	.	.	.	8x	.	8r	.
.	.	.	.	.	.	.	16C#JJ	.	.	.	.	.	.	.	.	.	.	.	.	.
8EEL	8BBL	16d#LL 16g#	16cc#LL 16ff#	16aa#LL 16ddd#	8r	8r	16ELL	8r	16cc#`LL 16ff#	16aa#`LL 16ddd#	8r	8dd# 8gg# 8ccc# 8fff#	8r	.	8x	.	8r	.	8r	.
.	.	16c# 16f#	16b 16ee	16gg# 16ccc#	.	.	16G#JJ	.	16b` 16ee	16gg#` 16ccc#	.	.	.	.	.	.	.	.	.	.
8EJ	8f#J	16A# 16d#	16g# 16cc#	16ff# 16aa#	8c# 8f#	8a# 8dd#	16r	16f#	16g#` 16cc#	16ff#` 16aa#	8c# 8f# 8a# 8dd#	8r	8r	.	8r	.	8r	.	8x	.
.	.	16G#JJ 16c#	16f#JJ 16a#	16dd#JJ 16gg#	.	.	16E	16r	16f#`JJ 16a#	16dd#`JJ 16gg#	.	.	.	.	.	.	.	.	.	.
=45	=45	=45	=45	=45	=45	=45	=45	=45	=45	=45	=45	=45	=45	=45	=45	=45	=45	=45	=45	=45
.	.	.	.	.	.	.	.	.	.	.	.	.	16qx/LL	.	.	.	.	.	.	.
.	.	.	.	.	.	.	.	.	.	.	.	.	16qx/	.	.	.	.	.	.	.
.	.	.	.	.	.	.	.	.	.	.	.	.	16qx/JJ	.	.	.	8qqx/	.	.	.
8FF#L	8G#L	16F#LL 16A#	16d#LL 16g#	16cc#LL 16ff#	8r	8r	16G#LL	8r	16d#LL 16g#	16cc#LL 16ff#	8r	8dd# 8gg# 8ccc# 8fff#	8x	.	8r	.	8x	.	4r	.
.	.	16G# 16c#	16f# 16a#	16dd# 16gg#	.	.	16C#	.	16f# 16a#	16dd# 16gg#	.	.	.	.	.	.	.	.	.	.
8EEJ	8BBJ	16A# 16d#	16g# 16cc#	16ff# 16aa#	8c# 8f#	8a# 8dd#	16FF#	8r	16g# 16cc#	16ff# 16aa#	8c# 8f# 8a# 8dd#	8r	8r	.	8x	.	8r	.	.	.
.	.	16c#JJ 16f#	16a#JJ 16dd#	16gg#JJ 16ccc#	.	.	16BBBJJ	.	16a#JJ 16dd#	16gg#JJ 16ccc#	.	.	.	.	.	.	.	.	.	.
8EL	8f#L	16d#LL 16g#	16cc#LL 16ff#	16aa#LL 16ddd#	8r	8r	16FF#LL	8r	16cc#LL 16ff#	16aa#LL 16ddd#	8r	8dd# 8gg# 8ccc# 8fff#	8r	.	4r	.	8r	.	8x	.
.	.	16f# 16a#	16dd# 16gg#	16ccc# 16fff#	.	.	16C#	.	16dd# 16gg#	16ccc# 16fff#	.	.	.	.	.	.	.	.	.	.
.	.	.	.	.	.	.	.	.	.	.	.	.	16qx/LL	.	.	.	.	.	.	.
.	.	.	.	.	.	.	.	.	.	.	.	.	16qx/	.	.	.	.	.	.	.
.	.	.	.	.	.	.	.	.	.	.	.	.	16qx/JJ	.	.	.	8qqx/	.	.	.
8FF#J	8G#J	16g# 16cc#	16ff# 16aa#	16ddd# 16ggg#	8c# 8f#	8a# 8dd#	16E	8r	16ff# 16aa#	16ddd# 16ggg#	8c# 8f# 8a# 8dd#	8r	8x	.	.	.	8x	.	8r	.
.	.	16f#JJ 16a#	16dd#JJ 16gg#	16ccc#JJ 16fff#	.	.	16G#JJ	.	16dd#JJ 16gg#	16ccc#JJ 16fff#	.	.	.	.	.	.	.	.	.	.
=46	=46	=46	=46	=46	=46	=46	=46	=46	=46	=46	=46	=46	=46	=46	=46	=46	=46	=46	=46	=46
8EEL	8BBL	16d#LL 16g#	16cc#LL 16ff#	16aa#LL 16ddd#	8r	8r	16r	16f#	16cc#LL 16ff#	16aa#LL 16ddd#	8r	8dd# 8gg# 8ccc# 8fff#	8r	.	8x	.	8r	.	8r	.
.	.	16c# 16f#	16a# 16dd#	16gg# 16ccc#	.	.	16ELL	16r	16a# 16dd#	16gg# 16ccc#	.	.	.	.	.	.	.	.	.	.
8EJ	8f#J	16A# 16d#	16g# 16cc#	16ff# 16aa#	8c# 8f#	8a# 8dd#	16G#	8r	16g# 16cc#	16ff# 16aa#	8c# 8f# 8a# 8dd#	8r	8r	.	4r	.	8r	.	8x	.
.	.	16G#JJ 16c#	16f#JJ 16a#	16dd#JJ 16gg#	.	.	16C#JJ	.	16f#JJ 16a#	16dd#JJ 16gg#	.	.	.	.	.	.	.	.	.	.
.	.	.	.	.	.	.	.	.	.	.	.	.	16qx/LL	.	.	.	.	.	.	.
.	.	.	.	.	.	.	.	.	.	.	.	.	16qx/	.	.	.	.	.	.	.
.	.	.	.	.	.	.	.	.	.	.	.	.	16qx/JJ	.	.	.	8qqx/	.	.	.
8FF#L	8G#L	16F#LL 16A#	16d#LL 16g#	16cc#LL 16ff#	8r	8r	16FF#LL	8r	16d#LL 16g#	16cc#LL 16ff#	8r	8dd# 8gg# 8ccc# 8fff#	8x	.	.	.	8x	.	4r	.
.	.	16G# 16c#	16f# 16a#	16dd# 16gg#	.	.	16BBB	.	16f# 16a#	16dd# 16gg#	.	.	.	.	.	.	.	.	.	.
8DD#J	8AA#J	16A# 16d#	16g# 16cc#	16ff# 16aa#	8c# 8f#	8a# 8dd#	16FF#	8r	16g# 16cc#	16ff# 16aa#	8c# 8f# 8a# 8dd#	8r	8r	.	8x	.	8r	.	.	.
.	.	16c#JJ 16f#	16a#JJ 16dd#	16gg#JJ 16ccc#	.	.	16C#JJ	.	16a#JJ 16dd#	16gg#JJ 16ccc#	.	.	.	.	.	.	.	.	.	.
=	=	=	=	=	=	=	=	=	=	=	=	=	=	=	=	=	=	=	=	=
*-	*-	*-	*-	*-	*-	*-	*-	*-	*-	*-	*-	*-	*-	*-	*-	*-	*-	*-	*-	*-
!!!system-decoration: [(s1,s2,s3,s4)]{(s5,s6)}{(s7,s8)}{(s9,s10)}{(s11,s12)}[(s13,s14,s15,s16,s17)]
!!!CDT: 1882/06/17-1971/04/06
!!!CBL: Lomonosov (Oranienbaum), Russia
!!!CDL: New York, United States
!!!CNT: Russian, French, American
!!!AGN: Orchestral; Programmatic
!!!MCN: Ansermet, Ernest
!!!MDT: 1919/12/06
!!!MGN: Orchestre de la Suisse Romande
!!!MLC: Geneva, Switzerland
!!!MPD: 1919
!!!MPN:
!!!ODT: 1917
!!!PDT: 1921
!!!excerpt-start-measure: 40
!!!excerpt-end-measure: 46
!!!excerpt-start-time: 1:10
!!!excerpt-end-time: 1:21
!!!EEV: 2020/01/22
!!!ONB: Converted from MusicXML on 2020/01/22
